X: 9148
T: Daisy Rose
R: reel
M: 4/4
K: Dmajor
AG|:FAd(d d)AFA|GBd(d d)BGB|FAd(d d)Adf|edcB AaAG|
FAd(d d)AFA|GBd(d d)BGB|Acef gecd|1 eddc dBAG:|2 eddc d2 fg||
aAAg AAfA|edcB AFDF|GBdD FAdf|edcB Aafg|
aAAg AAfA|edcB AFDF|GB d/e/f ecAc|1 cddc defg:|2 cddc d2 AG||

